; generated by Slic3r 0.9.8 on 2013-02-21 at 15:01:02

; layer_height = 0.3
; perimeters = 1
; top_solid_layers = 0
; bottom_solid_layers = 0
; fill_density = 0
; perimeter_speed = 50
; infill_speed = 50
; travel_speed = 100
; scale = 1
; nozzle_diameter = 0.35
; filament_diameter = 2.89
; extrusion_multiplier = 1
; perimeters extrusion width = 0.37mm
; infill extrusion width = 0.37mm
; first layer extrusion width = 0.45mm

M107
G28 ; home all axes
G90 ; use absolute coordinates
G21 ; set units to millimeters
G92 E0
M82 ; use absolute distances for extrusion
G1 F1500.000 E-1.10000
G92 E0
G1 Z0.300 F6000.000
G1 X11.668 Y4.417
G1 F1500.000 E1.10000
G1 X14.938 Y4.147 F3000.000 E1.16431
G1 X261.468 Y0.057 E5.99663
G1 X264.898 Y0.117 E6.06387
G1 X265.578 Y0.167 E6.07723
G1 X265.918 Y0.217 E6.08397
G1 X266.258 Y0.277 E6.09073
G1 X266.918 Y0.467 E6.10419
G1 X270.138 Y1.527 E6.17063
G1 X270.728 Y1.787 E6.18327
G1 X271.018 Y1.937 E6.18967
G1 X271.568 Y2.277 E6.20234
G1 X274.268 Y4.307 E6.26854
G1 X274.768 Y4.717 E6.28122
G1 X275.008 Y4.947 E6.28773
G1 X275.648 Y5.687 E6.30691
G1 X276.008 Y6.237 E6.31979
G1 X277.708 Y9.057 E6.38432
G1 X278.098 Y9.917 E6.40283
G1 X278.288 Y10.517 E6.41517
G1 X278.428 Y11.127 E6.42743
G1 X278.968 Y14.177 E6.48814
G1 X279.078 Y15.357 E6.51136
G1 X279.868 Y263.227 E11.36931
G1 X279.858 Y266.757 E11.43850
G1 X279.798 Y267.407 E11.45129
G1 X279.668 Y268.057 E11.46428
G1 X278.658 Y271.477 E11.53417
G1 X278.428 Y272.057 E11.54640
G1 X277.978 Y272.877 E11.56473
G1 X277.628 Y273.387 E11.57685
G1 X275.718 Y275.877 E11.63836
G1 X275.298 Y276.327 E11.65042
G1 X274.848 Y276.737 E11.66235
G1 X274.368 Y277.117 E11.67435
G1 X273.848 Y277.437 E11.68632
G1 X271.668 Y278.677 E11.73547
G1 X270.878 Y279.067 E11.75274
G1 X270.318 Y279.267 E11.76439
G1 X269.748 Y279.417 E11.77594
G1 X269.168 Y279.517 E11.78748
G1 X266.498 Y279.867 E11.84026
G1 X265.588 Y279.927 E11.85813
G1 X13.248 Y279.317 E16.80367
G1 X10.758 Y279.267 E16.85249
G1 X10.178 Y279.227 E16.86388
G1 X9.308 Y279.077 E16.88118
G1 X8.748 Y278.917 E16.89260
G1 X8.198 Y278.707 E16.90413
G1 X7.668 Y278.457 E16.91562
G1 X5.438 Y277.257 E16.96525
G1 X5.178 Y277.097 E16.97123
G1 X4.688 Y276.747 E16.98304
G1 X4.228 Y276.357 E16.99486
G1 X4.018 Y276.147 E17.00068
G1 X3.428 Y275.457 E17.01847
G1 X3.088 Y274.957 E17.03032
G1 X1.678 Y272.667 E17.08302
G1 X1.238 Y271.827 E17.10161
G1 X1.018 Y271.247 E17.11377
G1 X0.778 Y270.337 E17.13221
G1 X0.238 Y267.477 E17.18925
G1 X0.158 Y266.957 E17.19957
G1 X0.118 Y266.167 E17.21507
G1 X1.588 Y16.967 E22.09914
G1 X1.658 Y16.067 E22.11684
G1 X2.048 Y13.237 E22.17283
G1 X2.268 Y12.357 E22.19060
G1 X2.478 Y11.797 E22.20232
G1 X2.738 Y11.257 E22.21407
G1 X2.888 Y10.997 E22.21995
G1 X4.498 Y8.497 E22.27823
G1 X4.678 Y8.257 E22.28411
G1 X5.278 Y7.587 E22.30174
G1 X5.718 Y7.187 E22.31339
G1 X6.198 Y6.827 E22.32515
G1 X6.708 Y6.507 E22.33695
G1 X8.878 Y5.277 E22.38584
G1 X9.138 Y5.137 E22.39162
G1 X9.668 Y4.897 E22.40303
G1 X10.228 Y4.697 E22.41468
G1 X11.088 Y4.487 E22.43203
G1 X11.604 Y4.424 E22.44222
G1 X11.668 Y4.417 E22.44348
G1 X11.708 Y4.847 F6000.000
G1 X14.938 Y4.577 F3000.000 E22.50701
G1 X261.458 Y0.487 E27.33914
G1 X264.888 Y0.547 E27.40637
G1 X265.848 Y0.637 E27.42527
G1 X266.168 Y0.697 E27.43165
G1 X266.788 Y0.867 E27.44425
G1 X269.988 Y1.927 E27.51032
G1 X270.808 Y2.307 E27.52803
G1 X271.328 Y2.627 E27.54000
G1 X274.248 Y4.837 E27.61177
G1 X274.478 Y5.037 E27.61774
G1 X274.908 Y5.467 E27.62966
G1 X275.298 Y5.947 E27.64178
G1 X275.638 Y6.457 E27.65379
G1 X277.328 Y9.257 E27.71789
G1 X277.698 Y10.067 E27.73534
G1 X277.878 Y10.627 E27.74687
G1 X278.008 Y11.207 E27.75852
G1 X278.548 Y14.257 E27.81923
G1 X278.648 Y15.357 E27.84087
G1 X279.438 Y266.427 E32.76154
G1 X279.408 Y267.047 E32.77370
G1 X279.318 Y267.657 E32.78579
G1 X279.248 Y267.957 E32.79183
G1 X278.338 Y271.057 E32.85515
G1 X278.038 Y271.877 E32.87226
G1 X277.768 Y272.397 E32.88374
G1 X277.458 Y272.897 E32.89527
G1 X275.388 Y275.607 E32.96211
G1 X274.998 Y276.027 E32.97334
G1 X274.578 Y276.417 E32.98457
G1 X274.118 Y276.757 E32.99578
G1 X273.638 Y277.067 E33.00698
G1 X271.458 Y278.307 E33.05613
G1 X270.618 Y278.707 E33.07437
G1 X270.028 Y278.907 E33.08658
G1 X269.418 Y279.047 E33.09884
G1 X266.448 Y279.437 E33.15755
G1 X265.588 Y279.497 E33.17445
G1 X13.258 Y278.887 E38.11980
G1 X10.768 Y278.837 E38.16861
G1 X10.168 Y278.797 E38.18039
G1 X9.568 Y278.697 E38.19231
G1 X8.988 Y278.547 E38.20406
G1 X8.698 Y278.447 E38.21007
G1 X8.148 Y278.217 E38.22175
G1 X5.658 Y276.887 E38.27708
G1 X5.178 Y276.577 E38.28828
G1 X4.958 Y276.407 E38.29373
G1 X4.528 Y276.037 E38.30484
G1 X4.128 Y275.637 E38.31593
G1 X3.768 Y275.197 E38.32707
G1 X3.608 Y274.967 E38.33256
G1 X2.048 Y272.437 E38.39082
G1 X1.758 Y271.927 E38.40231
G1 X1.518 Y271.387 E38.41390
G1 X1.258 Y270.547 E38.43113
G1 X1.198 Y270.257 E38.43693
G1 X0.658 Y267.397 E38.49398
G1 X0.588 Y266.907 E38.50368
G1 X0.548 Y266.417 E38.51331
G1 X2.018 Y16.967 E43.40229
G1 X2.078 Y16.127 E43.41879
G1 X2.428 Y13.587 E43.46904
G1 X2.528 Y13.037 E43.48000
G1 X2.768 Y12.227 E43.49656
G1 X2.988 Y11.707 E43.50762
G1 X3.258 Y11.207 E43.51876
G1 X4.848 Y8.747 E43.57617
G1 X5.018 Y8.527 E43.58162
G1 X5.378 Y8.097 E43.59261
G1 X5.578 Y7.897 E43.59815
G1 X5.998 Y7.517 E43.60925
G1 X6.438 Y7.177 E43.62015
G1 X6.918 Y6.887 E43.63114
G1 X9.358 Y5.507 E43.68608
G1 X9.918 Y5.257 E43.69810
G1 X10.498 Y5.067 E43.71006
G1 X11.098 Y4.927 E43.72213
G1 X11.644 Y4.854 E43.73293
G1 X11.708 Y4.847 E43.73419
G1 F1500.000 E42.63419
G92 E0
G1 X12.799 Y13.132 F6000.000
G1 F1500.000 E1.10000
G1 X14.946 Y12.942 F3000.000 E1.14224
G1 X17.858 Y13.376 E1.19995
G1 X21.490 Y14.484 E1.27436
G1 X30.182 Y18.401 E1.46122
G1 X40.636 Y24.393 E1.69738
G1 X52.306 Y31.969 E1.97006
G1 X64.767 Y40.826 E2.26968
G1 X77.653 Y50.537 E2.58592
G1 X90.419 Y60.737 E2.90616
G1 X98.849 Y68.007 E3.12434
G1 X107.035 Y75.520 E3.34210
G1 X114.729 Y82.971 E3.55201
G1 X127.975 Y95.850 E3.91411
G1 X133.156 Y100.665 E4.05271
G1 X137.227 Y103.825 E4.15372
G1 X138.833 Y104.776 E4.19031
G1 X140.333 Y105.122 E4.22047
G1 X141.894 Y104.718 E4.25208
G1 X143.500 Y103.706 E4.28928
G1 X147.756 Y100.180 E4.39759
G1 X153.242 Y94.877 E4.54714
G1 X159.894 Y88.103 E4.73320
G1 X167.525 Y80.167 E4.94898
G1 X176.013 Y71.496 E5.18679
G1 X185.174 Y62.456 E5.43903
G1 X194.947 Y53.417 E5.69994
G1 X206.490 Y43.278 E6.00104
G1 X218.096 Y33.688 E6.29610
G1 X229.399 Y25.073 E6.57464
G1 X240.097 Y17.921 E6.82684
G1 X249.764 Y12.598 E7.04314
G1 X258.042 Y9.409 E7.21699
G1 X261.441 Y8.853 E7.28448
G1 X264.362 Y8.853 E7.34174
G1 X266.816 Y9.608 E7.39206
G1 X268.652 Y11.065 E7.43799
G1 X269.852 Y13.086 E7.48407
G1 X270.356 Y15.539 E7.53313
G1 X270.044 Y18.463 E7.59076
G1 X269.056 Y21.859 E7.66008
G1 X265.073 Y29.887 E7.83572
G1 X258.895 Y39.246 E8.05551
G1 X250.890 Y49.573 E8.31159
G1 X241.729 Y60.688 E8.59389
G1 X231.838 Y72.228 E8.89177
G1 X221.702 Y84.134 E9.19821
G1 X213.031 Y93.966 E9.45514
G1 X204.542 Y103.249 E9.70168
G1 X196.480 Y111.676 E9.93024
G1 X189.154 Y119.186 E10.13585
G1 X182.929 Y125.655 E10.31180
G1 X178.052 Y130.959 E10.45303
G1 X174.830 Y134.910 E10.55294
G1 X173.938 Y136.397 E10.58693
G1 X173.537 Y137.772 E10.61500
G1 X173.996 Y139.378 E10.64773
G1 X175.187 Y140.927 E10.68603
G1 X176.889 Y142.933 E10.73759
G1 X179.142 Y145.307 E10.80173
G1 X181.886 Y148.051 E10.87779
G1 X185.059 Y151.164 E10.96490
G1 X192.569 Y158.429 E11.16969
G1 X201.118 Y166.917 E11.40581
G1 X210.341 Y176.384 E11.66484
G1 X219.688 Y186.709 E11.93778
G1 X228.729 Y197.643 E12.21585
G1 X238.194 Y209.857 E12.51870
G1 X247.171 Y221.703 E12.80999
G1 X255.356 Y232.942 E13.08248
G1 X262.201 Y243.271 E13.32533
G1 X267.340 Y252.448 E13.53148
G1 X270.467 Y260.235 E13.69594
G1 X271.086 Y263.452 E13.76014
G1 X271.086 Y266.191 E13.81382
G1 X270.455 Y268.400 E13.85885
G1 X269.117 Y270.120 E13.90155
G1 X267.695 Y270.895 E13.93329
G1 X265.670 Y271.149 E13.97328
G1 X262.937 Y270.776 E14.02734
G1 X259.671 Y269.790 E14.09422
G1 X251.648 Y266.177 E14.26665
G1 X242.107 Y260.550 E14.48374
G1 X231.352 Y253.155 E14.73955
G1 X219.745 Y244.359 E15.02498
G1 X207.651 Y234.464 E15.33122
G1 X195.313 Y223.775 E15.65115
G1 X186.945 Y215.956 E15.87561
G1 X178.274 Y207.529 E16.11258
G1 X169.603 Y198.981 E16.35121
G1 X161.423 Y190.801 E16.57795
G1 X153.979 Y183.479 E16.78259
G1 X147.514 Y177.624 E16.95353
G1 X144.837 Y175.373 E17.02207
G1 X142.473 Y173.675 E17.07912
G1 X140.497 Y172.538 E17.12379
G1 X138.701 Y172.132 E17.15989
G1 X137.391 Y172.588 E17.18707
G1 X136.144 Y173.538 E17.21778
G1 X134.506 Y174.994 E17.26074
G1 X132.498 Y176.942 E17.31558
G1 X127.495 Y182.127 E17.45679
G1 X121.207 Y188.782 E17.63623
G1 X113.695 Y196.538 E17.84784
G1 X105.267 Y204.965 E18.08143
G1 X95.983 Y213.883 E18.33372
G1 X86.026 Y222.802 E18.59570
G1 X73.688 Y233.063 E18.91022
G1 X61.227 Y242.714 E19.21912
G1 X49.010 Y251.449 E19.51346
G1 X37.646 Y258.903 E19.77981
G1 X27.559 Y264.833 E20.00914
G1 X19.176 Y268.749 E20.19049
G1 X15.856 Y269.917 E20.25945
G1 X13.129 Y270.537 E20.31427
G1 X11.351 Y270.474 E20.34914
G1 X10.328 Y270.065 E20.37072
G1 X9.352 Y268.437 E20.40793
G1 X8.974 Y266.172 E20.45293
G1 X9.160 Y263.135 E20.51256
G1 X10.023 Y259.559 E20.58466
G1 X13.514 Y250.863 E20.76831
G1 X19.141 Y240.465 E21.00002
G1 X26.536 Y229.037 E21.26679
G1 X35.272 Y216.819 E21.56117
G1 X45.107 Y204.296 E21.87324
G1 X55.551 Y191.958 E22.19006
G1 X64.897 Y181.696 E22.46209
G1 X74.181 Y172.107 E22.72367
G1 X83.036 Y163.374 E22.96742
G1 X91.157 Y155.558 E23.18831
G1 X98.116 Y148.904 E23.37701
G1 X103.606 Y143.536 E23.52751
G1 X105.676 Y141.345 E23.58657
G1 X107.253 Y139.525 E23.63376
G1 X108.267 Y138.093 E23.66817
G1 X108.784 Y136.716 E23.69699
G1 X108.438 Y135.044 E23.73046
G1 X107.430 Y133.265 E23.77053
G1 X103.791 Y129.262 E23.87655
G1 X98.368 Y124.326 E24.02026
G1 X91.410 Y118.406 E24.19930
G1 X83.409 Y111.444 E24.40717
G1 X74.735 Y103.502 E24.63766
G1 X65.691 Y94.520 E24.88748
G1 X56.831 Y84.499 E25.14963
G1 X46.999 Y72.529 E25.45322
G1 X37.534 Y60.744 E25.74946
G1 X28.922 Y49.628 E26.02504
G1 X21.469 Y39.303 E26.27462
G1 X15.598 Y30.191 E26.48706
G1 X11.801 Y22.596 E26.65348
G1 X10.751 Y19.510 E26.71737
G1 X10.377 Y16.955 E26.76798
G1 X10.632 Y15.104 E26.80459
G1 X11.423 Y13.852 E26.83361
G1 X12.742 Y13.161 E26.86278
G1 X12.799 Y13.132 E26.86404
G1 X12.927 Y12.723 F6000.000
G1 X12.260 Y11.252
G1 X15.054 Y11.014 F3000.000 E26.91901
G1 X18.369 Y11.496 E26.98466
G1 X22.125 Y12.647 E27.06164
G1 X31.076 Y16.666 E27.25395
G1 X41.684 Y22.702 E27.49314
G1 X53.396 Y30.327 E27.76705
G1 X65.966 Y39.235 E28.06899
G1 X78.842 Y48.999 E28.38570
G1 X91.657 Y59.252 E28.70735
G1 X100.198 Y66.572 E28.92781
G1 X108.374 Y74.138 E29.14613
G1 X116.125 Y81.584 E29.35678
G1 X123.146 Y88.482 E29.54967
G1 X129.314 Y94.468 E29.71813
G1 X134.448 Y99.174 E29.85462
G1 X136.534 Y100.952 E29.90834
G1 X138.324 Y102.249 E29.95167
G1 X139.631 Y102.934 E29.98058
G1 X140.336 Y103.216 E29.99546
G1 X141.046 Y102.931 E30.01045
G1 X142.417 Y102.121 E30.04166
G1 X144.205 Y100.704 E30.08638
G1 X146.411 Y98.743 E30.14422
G1 X151.850 Y93.487 E30.29246
G1 X158.446 Y86.708 E30.47783
G1 X174.622 Y70.165 E30.93130
G1 X183.837 Y61.072 E31.18502
G1 X193.601 Y51.919 E31.44731
G1 X205.195 Y41.728 E31.74983
G1 X216.849 Y32.149 E32.04549
G1 X228.256 Y23.547 E32.32550
G1 X239.049 Y16.291 E32.58039
G1 X248.917 Y10.809 E32.80162
G1 X257.549 Y7.526 E32.98262
G1 X261.353 Y6.923 E33.05810
G1 X264.779 Y6.983 E33.12527
G1 X267.703 Y7.937 E33.18554
G1 X270.141 Y9.781 E33.24546
G1 X271.684 Y12.333 E33.30391
G1 X272.222 Y15.378 E33.36451
G1 X271.981 Y18.807 E33.43186
G1 X270.894 Y22.550 E33.50825
G1 X266.758 Y30.944 E33.69165
G1 X260.482 Y40.388 E33.91389
G1 X252.431 Y50.818 E34.17212
G1 X243.216 Y61.925 E34.45497
G1 X233.327 Y73.523 E34.75368
G1 X223.193 Y85.366 E35.05916
G1 X214.527 Y95.314 E35.31774
G1 X205.984 Y104.590 E35.56489
G1 X197.866 Y113.073 E35.79501
G1 X190.540 Y120.582 E36.00061
G1 X184.311 Y127.056 E36.17669
G1 X179.544 Y132.250 E36.31485
G1 X177.768 Y134.333 E36.36850
G1 X176.475 Y135.996 E36.40980
G1 X175.727 Y137.242 E36.43827
G1 X175.494 Y137.786 E36.44988
G1 X176.662 Y139.738 E36.49446
G1 X178.327 Y141.587 E36.54322
G1 X180.529 Y143.912 E36.60597
G1 X183.279 Y146.662 E36.68220
G1 X189.995 Y153.256 E36.86668
G1 X193.903 Y157.041 E36.97329
G1 X202.508 Y165.525 E37.21012
G1 X211.722 Y175.044 E37.46977
G1 X221.179 Y185.416 E37.74486
G1 X230.270 Y196.459 E38.02519
G1 X239.730 Y208.666 E38.32786
G1 X248.763 Y220.507 E38.61974
G1 X256.939 Y231.795 E38.89291
G1 X263.831 Y242.224 E39.13790
G1 X269.131 Y251.605 E39.34907
G1 X272.292 Y259.691 E39.51924
G1 X273.017 Y263.252 E39.59045
G1 X273.017 Y266.432 E39.65278
G1 X272.183 Y269.231 E39.71001
G1 X270.465 Y271.481 E39.76549
G1 X268.285 Y272.719 E39.81464
G1 X265.609 Y273.076 E39.86755
G1 X262.542 Y272.715 E39.92807
G1 X259.035 Y271.687 E39.99970
G1 X250.757 Y267.914 E40.17799
G1 X241.067 Y262.185 E40.39861
G1 X230.211 Y254.744 E40.65655
G1 X218.558 Y245.898 E40.94329
G1 X206.354 Y235.951 E41.25185
G1 X194.027 Y225.211 E41.57228
G1 X185.546 Y217.401 E41.79824
G1 X176.880 Y208.918 E42.03592
G1 X160.030 Y192.190 E42.50125
G1 X152.579 Y184.922 E42.70525
G1 X146.283 Y179.116 E42.87310
G1 X143.587 Y176.909 E42.94138
G1 X141.371 Y175.309 E42.99494
G1 X139.634 Y174.379 E43.03357
G1 X138.850 Y174.099 E43.04988
G1 X138.466 Y174.195 E43.05765
G1 X137.383 Y175.023 E43.08436
G1 X135.847 Y176.436 E43.12527
G1 X133.888 Y178.333 E43.17871
G1 X128.879 Y183.526 E43.32011
G1 X122.591 Y190.119 E43.49868
G1 X115.145 Y197.871 E43.70934
G1 X106.662 Y206.353 E43.94444
G1 X97.326 Y215.262 E44.19736
G1 X87.319 Y224.231 E44.46073
G1 X74.933 Y234.543 E44.77661
G1 X62.363 Y244.246 E45.08781
G1 X50.160 Y253.032 E45.38252
G1 X38.691 Y260.535 E45.65111
G1 X28.448 Y266.510 E45.88353
G1 X19.919 Y270.592 E46.06884
G1 X16.405 Y271.864 E46.14209
G1 X13.393 Y272.467 E46.20228
G1 X10.907 Y272.407 E46.25102
G1 X8.933 Y271.362 E46.29481
G1 X7.521 Y269.069 E46.34758
G1 X6.985 Y266.208 E46.40463
G1 X7.226 Y262.836 E46.47087
G1 X8.133 Y259.024 E46.54767
G1 X11.785 Y249.956 E46.73927
G1 X17.514 Y239.473 E46.97339
G1 X24.893 Y227.886 E47.24264
G1 X33.739 Y215.623 E47.53897
G1 X43.563 Y203.054 E47.85162
G1 X54.058 Y190.667 E48.16981
G1 X63.454 Y180.356 E48.44323
G1 X72.791 Y170.775 E48.70541
G1 X81.702 Y161.925 E48.95155
G1 X89.820 Y154.113 E49.17236
G1 X93.483 Y150.633 E49.27138
G1 X99.712 Y144.648 E49.44067
G1 X102.219 Y142.141 E49.51016
G1 X104.238 Y139.999 E49.56785
G1 X105.714 Y138.339 E49.61139
G1 X106.586 Y137.093 E49.64118
G1 X106.814 Y136.638 E49.65117
G1 X106.603 Y135.797 E49.66816
G1 X105.846 Y134.408 E49.69917
G1 X104.422 Y132.736 E49.74220
G1 X102.458 Y130.711 E49.79748
G1 X97.078 Y125.820 E49.93998
G1 X90.177 Y119.897 E50.11822
G1 X82.122 Y112.940 E50.32683
G1 X73.397 Y104.886 E50.55953
G1 X64.309 Y95.859 E50.81058
G1 X55.342 Y85.733 E51.07566
G1 X45.516 Y73.710 E51.37998
G1 X35.995 Y61.991 E51.67592
G1 X27.329 Y50.763 E51.95388
G1 X19.826 Y40.392 E52.20476
G1 X13.914 Y31.189 E52.41914
G1 X9.958 Y23.278 E52.59248
G1 X8.871 Y19.955 E52.66101
G1 X8.451 Y17.014 E52.71922
G1 X8.806 Y14.470 E52.76957
G1 X10.092 Y12.482 E52.81597
G1 X12.204 Y11.284 E52.86357
G1 X12.260 Y11.252 E52.86483
G1 F1500.000 E51.76483
G92 E0
G1 X77.223 Y77.576 F6000.000
G1 F1500.000 E1.10000
G1 X78.614 Y76.185 F3000.000 E1.13856
G1 X133.522 Y131.154 E2.66127
G1 X200.454 Y198.086 E4.51641
G1 X199.069 Y199.422 E4.55413
G1 X132.131 Y132.545 E6.40858
G1 X77.268 Y77.622 E7.93004
G1 X77.223 Y77.576 E7.93130
G1 F1500.000 E6.83130
G92 E0
G1 X145.904 Y130.629 F6000.000
G1 F1500.000 E1.10000
G1 X209.017 Y67.516 F3000.000 E2.84928
G1 X210.408 Y68.907 E2.88784
G1 X147.295 Y132.020 E4.63712
G1 X145.950 Y130.674 E4.67442
G1 X145.904 Y130.629 E4.67568
G1 F1500.000 E3.57568
G92 E0
G1 X130.992 Y145.541 F6000.000
G1 F1500.000 E1.10000
G1 X132.328 Y146.926 F3000.000 E1.13772
G1 X69.460 Y209.795 E2.88023
G1 X68.124 Y208.409 E2.91795
G1 X130.947 Y145.586 E4.65920
G1 X130.992 Y145.541 E4.66046
G1 F1500.000 E3.56046
G92 E0

M104 S0 ; turn off nozzle temperature
